client/public/static/logos/skep.svg

<svg width="1290" height="353" viewBox="0 0 1290 353" fill="none" xmlns="http://www.w3.org/2000/svg">
<path d="M1289.19 145.799C1288.55 147.603 1287.61 149.195 1287.31 150.899C1284.28 167.692 1277.58 182.806 1267.35 196.484C1255.36 212.511 1240.1 224.39 1221.99 232.553C1212.67 236.756 1202.88 239.886 1192.64 241.096C1185.96 241.884 1179.26 242.835 1172.56 242.972C1151.51 243.401 1130.45 243.48 1109.4 243.693C1108.56 243.701 1107.73 243.694 1106.64 243.694C1106.64 276.939 1106.64 309.986 1106.64 343.195C1076.35 343.195 1046.3 343.195 1016.09 343.195C1016.09 232.132 1016.09 121.083 1016.09 9.79476C1016.95 9.74748 1017.87 9.65277 1018.79 9.65264C1069.57 9.64552 1120.36 9.38022 1171.14 9.79475C1188.26 9.93449 1205.03 13.2586 1220.94 20.1514C1231.59 24.7708 1241.25 30.8565 1250.13 38.3506C1263.25 49.4234 1273.21 62.816 1280.13 78.4379C1284.04 87.2496 1286.73 96.482 1287.91 106.1C1288.12 107.757 1288.42 109.401 1288.94 111.145C1289.19 121.111 1289.19 130.983 1288.95 141.238C1288.87 142.853 1289.03 144.085 1289.19 145.317C1289.19 145.317 1289.19 145.638 1289.19 145.799ZM1121.69 91.3057C1116.7 91.3057 1111.71 91.3057 1106.76 91.3057C1106.76 115.073 1106.76 138.473 1106.76 162.034C1107.66 162.034 1108.39 162.034 1109.13 162.034C1127.44 162.034 1145.76 162.061 1164.07 161.992C1165.92 161.985 1167.79 161.5 1169.61 161.057C1178.25 158.948 1185.29 154.433 1190.97 147.49C1202.63 133.244 1200.56 114.982 1188.15 102.616C1180.05 94.5472 1169.85 91.0657 1158.32 91.2605C1146.33 91.4632 1134.33 91.3057 1121.69 91.3057Z" fill="#333333"/>
<path d="M148.872 0C151.569 0.42837 153.949 1.10128 156.362 1.24592C173.636 2.28161 190.205 6.55933 206.062 13.1342C217.721 17.9683 228.734 24.3642 238.718 32.161C244.745 36.8674 250.069 42.4732 256.534 48.4355C254.947 49.5033 253.831 50.015 253.027 50.8336C245.698 58.2953 238.39 65.7778 231.143 73.3183C222.289 82.5299 213.481 91.7849 204.7 101.066C202.95 102.915 202.254 103.229 199.956 100.961C195.311 96.3771 189.998 92.309 184.454 88.8374C176.58 83.9071 168.162 79.8997 158.889 78.1659C144.351 75.4476 130.92 77.308 119.901 88.16C115.739 92.2595 113.096 97.3018 112.541 103.218C111.817 110.945 115.719 116.412 121.49 120.875C130.849 128.112 142.058 131.255 152.983 134.997C168.181 140.203 183.583 144.868 198.574 150.61C210.943 155.347 222.472 161.918 233.225 169.817C245.297 178.684 253.78 190.274 259.697 203.799C263.277 211.981 265.522 220.628 266.168 229.588C266.542 234.773 266.694 239.977 266.826 245.176C267.138 257.451 264.625 269.272 260.249 280.631C254.09 296.62 243.726 309.783 230.946 320.932C216.859 333.222 200.57 341.751 182.469 346.475C174.755 348.489 166.809 349.633 158.945 351.043C155.349 351.688 151.698 352.022 147.98 352.748C147.405 353 146.923 353 146.108 352.749C144.121 352.665 142.468 352.833 140.814 353C136.728 353 132.643 353 128.164 352.749C126.118 352.665 124.464 352.833 122.811 353C121.286 353 119.762 353 117.873 352.749C117.072 352.238 116.659 351.81 116.194 351.743C108.556 350.635 100.859 349.856 93.2807 348.438C79.855 345.926 66.8745 341.795 54.5906 335.811C48.2921 332.744 42.2886 329.032 36.3091 325.356C26.3517 319.234 16.6755 312.694 8.33179 304.408C5.49466 301.59 2.77392 298.655 0 295.774C0 295.774 1.28389e-06 295.453 0.217716 295.243C17.7875 276.761 35.1397 258.489 52.7055 239.991C55.159 242.497 57.1367 244.93 59.5171 246.868C66.3195 252.408 72.8351 258.487 80.2781 263.014C97.3923 273.426 115.942 278.717 136.13 274.499C150.613 271.472 160.975 263.157 165.528 248.773C167.384 242.909 167.471 236.837 163.577 231.366C157.923 223.424 149.706 219.201 140.906 216.106C130.316 212.379 119.572 209.077 108.838 205.772C88.641 199.552 69.1431 191.883 51.4104 180.09C40.1174 172.579 30.8 163.347 23.9986 151.6C17.124 139.726 13.2897 126.791 12.3787 113.256C11.5523 100.977 12.1516 88.7262 15.9297 76.6619C22.2669 56.4259 35.1645 41.0721 51.0171 27.9609C60.1896 20.3746 70.5917 14.5594 81.8059 10.2066C94.1949 5.39776 106.909 2.32524 120.141 1.24872C122.123 1.08744 124.065 0.428643 126.025 0C126.508 6.42987e-07 126.99 6.32363e-07 127.779 0.228579C128.899 0.304772 129.713 0.152386 130.526 0C136.541 6.42987e-07 142.556 6.42987e-07 148.872 0Z" fill="#333333"/>
<path d="M745.865 343.355C725.412 343.355 705.281 343.355 684.965 343.355C684.965 232.149 684.965 121.084 684.965 9.83203C770.476 9.83203 856.036 9.83203 941.786 9.83203C941.786 35.3246 941.786 60.8752 941.786 86.6811C886.716 86.6811 831.589 86.6811 776.274 86.6811C776.274 103.912 776.274 120.89 776.274 138.124C818.703 138.124 861.185 138.124 903.854 138.124C903.854 162.214 903.854 186.05 903.854 210.142C861.418 210.142 818.936 210.142 776.27 210.142C776.27 228.874 776.27 247.352 776.27 266.086C832.856 266.086 889.484 266.086 946.294 266.086C946.294 291.89 946.294 317.44 946.294 343.355C879.616 343.355 812.901 343.355 745.865 343.355Z" fill="#333333"/>
<path d="M498.162 181.795C501.299 179.946 504.265 178.27 507.414 176.49C496.142 170.013 485.025 163.653 473.935 157.246C461.584 150.111 449.247 142.948 436.959 135.705C436.537 135.457 436.314 133.907 436.652 133.476C444.908 122.939 453.294 112.504 461.568 101.981C468.987 92.5463 476.257 82.9939 483.674 73.5569C489.688 65.9052 495.872 58.3874 501.888 50.7374C507.626 43.4404 513.198 36.013 518.93 28.7108C523.777 22.5353 528.732 16.4437 533.698 10.3631C534.057 9.92291 534.897 9.67379 535.513 9.67326C569.802 9.64408 604.091 9.6506 638.38 9.66189C638.577 9.66195 638.773 9.77935 639.79 10.1031C595.989 65.7569 552.375 121.173 508.834 176.495C552.388 231.838 595.963 287.207 640.15 343.355C637.909 343.355 636.788 343.355 635.668 343.355C603.093 343.355 570.518 343.309 537.944 343.435C535.113 343.446 533.32 342.563 531.684 340.438C523.531 329.85 515.351 319.283 507.091 308.779C499.525 299.158 491.795 289.666 484.228 280.047C476.806 270.614 469.549 261.051 462.125 251.619C455.264 242.904 448.275 234.29 441.349 225.626C439.717 223.584 438.031 221.576 436.57 219.417C436.268 218.971 436.605 217.49 437.075 217.214C448.215 210.673 459.412 204.23 470.6 197.772C479.729 192.502 488.86 187.235 498.162 181.795Z" fill="#333333"/>
<path d="M324.066 159.459C324.066 109.429 324.066 59.7212 324.066 9.82812C354.257 9.82812 384.308 9.82812 414.543 9.82812C414.543 120.852 414.543 231.918 414.543 343.169C384.536 343.169 354.484 343.169 324.066 343.169C324.066 282.067 324.066 220.924 324.066 159.459Z" fill="#333333"/>
</svg>

<svg xmlns="http://www.w3.org/2000/svg" width="1290" height="353" fill="none" viewBox="0 0 1290 353"><path fill="#333" d="M1289.19 145.799c-.64 1.804-1.58 3.396-1.88 5.1-3.03 16.793-9.73 31.907-19.96 45.585-11.99 16.027-27.25 27.906-45.36 36.069-9.32 4.203-19.11 7.333-29.35 8.543-6.68.788-13.38 1.739-20.08 1.876-21.05.429-42.11.508-63.16.721-.84.008-1.67.001-2.76.001v99.501h-90.55V9.795c.86-.048 1.78-.142 2.7-.142 50.78-.007 101.57-.273 152.35.142 17.12.14 33.89 3.464 49.8 10.356 10.65 4.62 20.31 10.706 29.19 18.2 13.12 11.072 23.08 24.465 30 40.087 3.91 8.812 6.6 18.044 7.78 27.662.21 1.657.51 3.301 1.03 5.045.25 9.966.25 19.838.01 30.093-.08 1.615.08 2.847.24 4.079zm-167.5-54.493h-14.93v70.728h2.37c18.31 0 36.63.027 54.94-.042 1.85-.007 3.72-.492 5.54-.935 8.64-2.109 15.68-6.624 21.36-13.567 11.66-14.246 9.59-32.508-2.82-44.874-8.1-8.069-18.3-11.55-29.83-11.356-11.99.203-23.99.046-36.63.046M148.872 0c2.697.428 5.077 1.101 7.49 1.246 17.274 1.036 33.843 5.313 49.7 11.888a140.6 140.6 0 0 1 32.656 19.027c6.027 4.706 11.351 10.312 17.816 16.274-1.587 1.068-2.703 1.58-3.507 2.399-7.329 7.461-14.637 14.944-21.884 22.484a4859 4859 0 0 0-26.443 27.748c-1.75 1.849-2.446 2.163-4.744-.105-4.645-4.584-9.958-8.652-15.502-12.124-7.874-4.93-16.292-8.937-25.565-10.671-14.538-2.718-27.969-.858-38.988 9.994-4.162 4.1-6.805 9.142-7.36 15.058-.724 7.727 3.178 13.194 8.949 17.657 9.359 7.237 20.568 10.38 31.493 14.122 15.198 5.206 30.6 9.871 45.591 15.613 12.369 4.737 23.898 11.308 34.651 19.207 12.072 8.867 20.555 20.457 26.472 33.982 3.58 8.182 5.825 16.829 6.471 25.789.374 5.185.526 10.389.658 15.588.312 12.275-2.201 24.096-6.577 35.455-6.159 15.989-16.523 29.152-29.303 40.301-14.087 12.29-30.376 20.819-48.477 25.543-7.714 2.014-15.66 3.158-23.524 4.568-3.596.645-7.247.979-10.965 1.705-.575.252-1.057.252-1.872.001-1.987-.084-3.64.084-5.294.251-4.086 0-8.171 0-12.65-.251-2.046-.084-3.7.084-5.353.251-1.525 0-3.049 0-4.938-.251-.801-.511-1.214-.939-1.679-1.006-7.638-1.108-15.335-1.887-22.913-3.305-13.426-2.512-26.407-6.643-38.69-12.627-6.299-3.067-12.302-6.779-18.282-10.455-9.957-6.122-19.633-12.662-27.977-20.948-2.837-2.818-5.558-5.753-8.332-8.634 0 0 0-.321.218-.531 17.57-18.482 34.922-36.754 52.488-55.252 2.453 2.506 4.43 4.939 6.811 6.877 6.803 5.54 13.318 11.619 20.761 16.146 17.114 10.412 35.664 15.703 55.852 11.485 14.483-3.027 24.845-11.342 29.398-25.726 1.856-5.864 1.943-11.936-1.951-17.407-5.654-7.942-13.871-12.165-22.671-15.26-10.59-3.727-21.334-7.029-32.068-10.334-20.197-6.22-39.695-13.889-57.428-25.682C40.117 172.579 30.8 163.347 24 151.6c-6.875-11.874-10.71-24.809-11.62-38.344-.827-12.279-.227-24.53 3.55-36.594 6.338-20.236 19.235-35.59 35.088-48.701 9.173-7.586 19.575-13.402 30.789-17.754 12.389-4.81 25.103-7.882 38.335-8.958 1.982-.162 3.924-.82 5.884-1.249.483 0 .965 0 1.754.229 1.12.076 1.934-.077 2.747-.229zM745.865 343.355h-60.9V9.832h256.821v76.85H776.274v51.442h127.58v72.018H776.27v55.944h170.024v77.269zM498.162 181.795c3.137-1.849 6.103-3.525 9.252-5.305-11.272-6.477-22.389-12.837-33.479-19.244-12.351-7.135-24.688-14.298-36.976-21.541-.422-.248-.645-1.798-.307-2.229 8.256-10.537 16.642-20.972 24.916-31.495 7.419-9.435 14.689-18.987 22.106-28.424 6.014-7.652 12.198-15.17 18.214-22.82 5.738-7.297 11.31-14.724 17.042-22.026 4.847-6.176 9.802-12.267 14.768-18.348.359-.44 1.199-.69 1.815-.69 34.289-.029 68.578-.022 102.867-.011.197 0 .393.117 1.41.441L508.834 176.495l131.316 166.86h-4.482c-32.575 0-65.15-.046-97.724.08-2.831.011-4.624-.872-6.26-2.997-8.153-10.588-16.333-21.155-24.593-31.659-7.566-9.621-15.296-19.113-22.863-28.732-7.422-9.433-14.679-18.996-22.103-28.428-6.861-8.715-13.85-17.329-20.776-25.993-1.632-2.042-3.318-4.05-4.779-6.209-.302-.446.035-1.927.505-2.203 11.14-6.541 22.337-12.984 33.525-19.442 9.129-5.27 18.26-10.537 27.562-15.977M324.066 159.459V9.829h90.477v333.34h-90.477z"/></svg>
